source/img/svg/inline-icon-email.svg

<svg width="19" height="14" viewBox="0 0 19 14" xmlns="http://www.w3.org/2000/svg">
<path fill-rule="evenodd" clip-rule="evenodd" d="M0 14V6H1.3V14H0Z"/>
<path fill-rule="evenodd" clip-rule="evenodd" d="M17 14V6H18.3V14H17Z"/>
<path fill-rule="evenodd" clip-rule="evenodd" d="M18 14L0 14L1.21593e-05 12.7H18V14Z"/>
<path fill-rule="evenodd" clip-rule="evenodd" d="M9.00002 9.2664L16.7 2.96231V2.36842L1.3 2.36842V2.9623L9.00002 9.2664ZM0 3.63158L9.00002 11L18 3.63158V0.703125L0 0.703125V3.63158Z"/>
</svg>

<svg width="19" height="14" viewBox="0 0 19 14" xmlns="http://www.w3.org/2000/svg">
  <path fill-rule="evenodd" clip-rule="evenodd" d="M0 14V6h1.3v8H0zM17 14V6h1.3v8H17z"/><path fill-rule="evenodd" clip-rule="evenodd" d="M18 14H0v-1.3h18V14zM9 9.3L16.7 3v-.6H1.3V3L9 9.3zM0 3.6L9 11l9-7.4V.7H0v3z"/>
</svg>
